Newaita-dark/.DP/16/nm-vpn-lock.svg

<svg xmlns="http://www.w3.org/2000/svg" xmlns:xlink="http://www.w3.org/1999/xlink" width="16px" height="16px" viewBox="0 0 16 16" version="1.1">
<g id="surface1">
<path style=" stroke:none;fill-rule:nonzero;fill:rgb(100%,43.921569%,26.274511%);fill-opacity:1;" d="M 11.746094 9.414062 C 11.378906 9.414062 11.082031 9.707031 11.082031 10.074219 L 11.082031 12.058594 C 10.714844 12.058594 10.421875 12.355469 10.421875 12.722656 L 10.421875 14.042969 C 10.421875 14.410156 10.714844 14.707031 11.082031 14.707031 L 14.058594 14.707031 C 14.425781 14.707031 14.722656 14.410156 14.722656 14.042969 L 14.722656 12.722656 C 14.722656 12.355469 14.425781 12.058594 14.058594 12.058594 L 14.058594 10.074219 C 14.058594 9.707031 13.765625 9.414062 13.398438 9.414062 Z M 12.074219 10.074219 L 13.066406 10.074219 C 13.25 10.074219 13.398438 10.222656 13.398438 10.40625 L 13.398438 12.058594 L 11.746094 12.058594 L 11.746094 10.40625 C 11.746094 10.222656 11.890625 10.074219 12.074219 10.074219 Z M 12.570312 12.722656 C 12.847656 12.722656 13.066406 12.941406 13.066406 13.21875 C 13.066406 13.433594 12.929688 13.617188 12.734375 13.6875 C 12.734375 13.695312 12.738281 13.703125 12.738281 13.714844 L 12.738281 14.210938 C 12.738281 14.300781 12.664062 14.375 12.570312 14.375 C 12.480469 14.375 12.40625 14.300781 12.40625 14.210938 L 12.40625 13.714844 C 12.40625 13.703125 12.40625 13.695312 12.40625 13.6875 C 12.214844 13.617188 12.074219 13.433594 12.074219 13.21875 C 12.074219 12.941406 12.296875 12.722656 12.570312 12.722656 Z M 12.570312 12.722656 "/>
</g>
</svg>

<svg xmlns="http://www.w3.org/2000/svg" width="16pt" height="16pt" viewBox="0 0 16 16"><path d="M11.746 9.414a.66.66 0 0 0-.664.66v1.985a.66.66 0 0 0-.66.664v1.32a.66.66 0 0 0 .66.664h2.977a.664.664 0 0 0 .664-.664v-1.32a.664.664 0 0 0-.664-.664v-1.985a.657.657 0 0 0-.66-.66zm.328.66h.992c.184 0 .332.149.332.332v1.653h-1.652v-1.653c0-.183.145-.332.328-.332zm.496 2.649c.278 0 .496.218.496.496a.498.498 0 0 1-.332.469c0 .007.004.015.004.027v.496a.166.166 0 0 1-.332 0v-.496-.027a.504.504 0 0 1-.332-.47c0-.277.223-.495.496-.495zm0 0" fill="#ff7043"/></svg>
